X:94
T: Die ueppigen Bauern
N: A0451
O: Europa, Mitteleuropa, Deutschland
N: Schoeffer 1537 No. 62 und Forster II No. 56.
R: Romanze, Ballade, Lied
M: 4/2
L: 1/4
K: G
G2 | d2d2d2d2 | G4G2
G2 | _B2B2A2A2 | G4z2
G2 | d2d2d2d2 | G4G2
G2 | _B2B2A2A2 | G4z2
G2 | =F2E2F2G2 | A4A2
_B2 | A2A2A2A2 | D4z2
D2 | G2=F2G2A2 | _B4A2
G2 | =F2G2A2G2 | _B4A2
G2 | _B2B2A2G2 | _B2B2A2
G2 | _B2B2A2
G2 | F3GA2G2 | d4d2
d2 | d2d2d2d2 | G6

@@@ Tune index: 407
